static/img/kroki/719064d028d0324333360184324e418a.svg

<?xml version="1.0" encoding="us-ascii" standalone="no"?><svg xmlns="http://www.w3.org/2000/svg" xmlns:xlink="http://www.w3.org/1999/xlink" contentStyleType="text/css" height="820px" preserveAspectRatio="none" style="width:368px;height:820px;" version="1.1" viewBox="0 0 368 820" width="368px" zoomAndPan="magnify"><defs/><g><!--class digitalocean_app--><g id="elem_digitalocean_app"><rect codeLine="22" fill="#3D176E" height="179.2734" id="digitalocean_app" rx="2.5" ry="2.5" style="stroke:#000D19;stroke-width:0.5;" width="191" x="48" y="633.85"/><ellipse cx="67.05" cy="653.7445" fill="#ADD1B2" rx="11" ry="11" style="stroke:#181818;stroke-width:1.0;"/><path d="M70.0188,659.3852 Q69.4406,659.682 68.8,659.8227 Q68.1594,659.9789 67.4563,659.9789 Q64.9563,659.9789 63.6281,658.3383 Q62.3156,656.682 62.3156,653.557 Q62.3156,650.432 63.6281,648.7758 Q64.9563,647.1195 67.4563,647.1195 Q68.1594,647.1195 68.8,647.2758 Q69.4563,647.432 70.0188,647.7289 L70.0188,650.4477 Q69.3938,649.8695 68.8,649.6039 Q68.2063,649.3227 67.5813,649.3227 Q66.2375,649.3227 65.55,650.4008 Q64.8625,651.4633 64.8625,653.557 Q64.8625,655.6508 65.55,656.7289 Q66.2375,657.7914 67.5813,657.7914 Q68.2063,657.7914 68.8,657.5258 Q69.3938,657.2445 70.0188,656.6664 L70.0188,659.3852 Z " fill="#000000"/><text fill="#D9B8FF" font-family="Helvetica" font-size="17" lengthAdjust="spacing" textLength="140" x="86.95" y="659.6298">digitalocean_app</text><line style="stroke:#000D19;stroke-width:0.5;" x1="49" x2="238" y1="673.6391" y2="673.6391"/><text fill="#D9B8FF" font-family="sans-serif" font-size="14" font-weight="bold" lengthAdjust="spacing" textLength="121" x="59" y="695.6342">default_ingress</text><text fill="#D9B8FF" font-family="sans-serif" font-size="14" lengthAdjust="spacing" textLength="48" x="180" y="695.6342">: string</text><text fill="#D9B8FF" font-family="sans-serif" font-size="14" font-weight="bold" lengthAdjust="spacing" textLength="91" x="59" y="721.9311">live_domain</text><text fill="#D9B8FF" font-family="sans-serif" font-size="14" lengthAdjust="spacing" textLength="48" x="150" y="721.9311">: string</text><text fill="#D9B8FF" font-family="sans-serif" font-size="14" font-weight="bold" lengthAdjust="spacing" textLength="55" x="59" y="748.2279">live_url</text><text fill="#D9B8FF" font-family="sans-serif" font-size="14" lengthAdjust="spacing" textLength="48" x="114" y="748.2279">: string</text><text fill="#D9B8FF" font-family="sans-serif" font-size="14" font-weight="bold" lengthAdjust="spacing" textLength="100" x="59" y="774.5248">live_url_base</text><text fill="#D9B8FF" font-family="sans-serif" font-size="14" lengthAdjust="spacing" textLength="48" x="159" y="774.5248">: string</text><text fill="#D9B8FF" font-family="sans-serif" font-size="14" font-weight="bold" lengthAdjust="spacing" textLength="67" x="59" y="800.8217">tier_slug</text><text fill="#D9B8FF" font-family="sans-serif" font-size="14" lengthAdjust="spacing" textLength="48" x="126" y="800.8217">: string</text></g><!--class digitalocean_resource--><g id="elem_digitalocean_resource"><rect codeLine="29" fill="#3D176E" height="74.0859" id="digitalocean_resource" rx="2.5" ry="2.5" style="stroke:#000D19;stroke-width:0.5;" width="223" x="138" y="438.76"/><ellipse cx="153" cy="458.6545" fill="#ADD1B2" rx="11" ry="11" style="stroke:#181818;stroke-width:1.0;"/><path d="M155.9688,464.2952 Q155.3906,464.592 154.75,464.7327 Q154.1094,464.8889 153.4063,464.8889 Q150.9063,464.8889 149.5781,463.2483 Q148.2656,461.592 148.2656,458.467 Q148.2656,455.342 149.5781,453.6858 Q150.9063,452.0295 153.4063,452.0295 Q154.1094,452.0295 154.75,452.1858 Q155.4063,452.342 155.9688,452.6389 L155.9688,455.3577 Q155.3438,454.7795 154.75,454.5139 Q154.1563,454.2327 153.5313,454.2327 Q152.1875,454.2327 151.5,455.3108 Q150.8125,456.3733 150.8125,458.467 Q150.8125,460.5608 151.5,461.6389 Q152.1875,462.7014 153.5313,462.7014 Q154.1563,462.7014 154.75,462.4358 Q155.3438,462.1545 155.9688,461.5764 L155.9688,464.2952 Z " fill="#000000"/><text fill="#D9B8FF" font-family="Helvetica" font-size="17" lengthAdjust="spacing" textLength="181" x="172" y="464.5398">digitalocean_resource</text><line style="stroke:#000D19;stroke-width:0.5;" x1="139" x2="360" y1="478.5491" y2="478.5491"/><text fill="#D9B8FF" font-family="sans-serif" font-size="14" font-weight="bold" lengthAdjust="spacing" textLength="27" x="149" y="500.5442">urn</text><text fill="#D9B8FF" font-family="sans-serif" font-size="14" lengthAdjust="spacing" textLength="48" x="176" y="500.5442">: string</text></g><!--class resource--><g id="elem_resource"><rect codeLine="32" fill="#3D176E" height="310.7578" id="resource" rx="2.5" ry="2.5" style="stroke:#000D19;stroke-width:0.5;" width="227" x="7" y="7"/><ellipse cx="75.75" cy="26.8945" fill="#ADD1B2" rx="11" ry="11" style="stroke:#181818;stroke-width:1.0;"/><path d="M78.7188,32.5352 Q78.1406,32.832 77.5,32.9727 Q76.8594,33.1289 76.1563,33.1289 Q73.6563,33.1289 72.3281,31.4883 Q71.0156,29.832 71.0156,26.707 Q71.0156,23.582 72.3281,21.9258 Q73.6563,20.2695 76.1563,20.2695 Q76.8594,20.2695 77.5,20.4258 Q78.1563,20.582 78.7188,20.8789 L78.7188,23.5977 Q78.0938,23.0195 77.5,22.7539 Q76.9063,22.4727 76.2813,22.4727 Q74.9375,22.4727 74.25,23.5508 Q73.5625,24.6133 73.5625,26.707 Q73.5625,28.8008 74.25,29.8789 Q74.9375,30.9414 76.2813,30.9414 Q76.9063,30.9414 77.5,30.6758 Q78.0938,30.3945 78.7188,29.8164 L78.7188,32.5352 Z " fill="#000000"/><text fill="#D9B8FF" font-family="Helvetica" font-size="17" lengthAdjust="spacing" textLength="71" x="101.25" y="32.7798">resource</text><line style="stroke:#000D19;stroke-width:0.5;" x1="8" x2="233" y1="46.7891" y2="46.7891"/><text fill="#D9B8FF" font-family="sans-serif" font-size="14" font-weight="bold" lengthAdjust="spacing" textLength="29" x="18" y="68.7842">age</text><text fill="#D9B8FF" font-family="sans-serif" font-size="14" lengthAdjust="spacing" textLength="66" x="47" y="68.7842">: duration</text><text fill="#D9B8FF" font-family="sans-serif" font-size="14" font-weight="bold" lengthAdjust="spacing" textLength="43" x="18" y="95.0811">atime</text><text fill="#D9B8FF" font-family="sans-serif" font-size="14" lengthAdjust="spacing" textLength="70" x="61" y="95.0811">: datetime</text><text fill="#D9B8FF" font-family="sans-serif" font-size="14" font-weight="bold" lengthAdjust="spacing" textLength="43" x="18" y="121.3779">ctime</text><text fill="#D9B8FF" font-family="sans-serif" font-size="14" lengthAdjust="spacing" textLength="70" x="61" y="121.3779">: datetime</text><text fill="#D9B8FF" font-family="sans-serif" font-size="14" font-weight="bold" lengthAdjust="spacing" textLength="14" x="18" y="147.6748">id</text><text fill="#D9B8FF" font-family="sans-serif" font-size="14" lengthAdjust="spacing" textLength="48" x="32" y="147.6748">: string</text><text fill="#D9B8FF" font-family="sans-serif" font-size="14" font-weight="bold" lengthAdjust="spacing" textLength="33" x="18" y="173.9717">kind</text><text fill="#D9B8FF" font-family="sans-serif" font-size="14" lengthAdjust="spacing" textLength="48" x="51" y="173.9717">: string</text><text fill="#D9B8FF" font-family="sans-serif" font-size="14" font-weight="bold" lengthAdjust="spacing" textLength="90" x="18" y="200.2686">last_access</text><text fill="#D9B8FF" font-family="sans-serif" font-size="14" lengthAdjust="spacing" textLength="66" x="108" y="200.2686">: duration</text><text fill="#D9B8FF" font-family="sans-serif" font-size="14" font-weight="bold" lengthAdjust="spacing" textLength="90" x="18" y="226.5654">last_update</text><text fill="#D9B8FF" font-family="sans-serif" font-size="14" lengthAdjust="spacing" textLength="66" x="108" y="226.5654">: duration</text><text fill="#D9B8FF" font-family="sans-serif" font-size="14" font-weight="bold" lengthAdjust="spacing" textLength="48" x="18" y="252.8623">mtime</text><text fill="#D9B8FF" font-family="sans-serif" font-size="14" lengthAdjust="spacing" textLength="70" x="66" y="252.8623">: datetime</text><text fill="#D9B8FF" font-family="sans-serif" font-size="14" font-weight="bold" lengthAdjust="spacing" textLength="43" x="18" y="279.1592">name</text><text fill="#D9B8FF" font-family="sans-serif" font-size="14" lengthAdjust="spacing" textLength="48" x="61" y="279.1592">: string</text><text fill="#D9B8FF" font-family="sans-serif" font-size="14" font-weight="bold" lengthAdjust="spacing" textLength="34" x="18" y="305.4561">tags</text><text fill="#D9B8FF" font-family="sans-serif" font-size="14" lengthAdjust="spacing" textLength="171" x="52" y="305.4561">: dictionary[string, string]</text></g><!--reverse link digitalocean_resource to digitalocean_app--><g id="link_digitalocean_resource_digitalocean_app"><path codeLine="44" d="M226.6185,529.847 C212.9785,561.457 199.81,591.97 181.92,633.43 " fill="none" id="digitalocean_resource-backto-digitalocean_app" style="stroke:#FFAF37;stroke-width:2.0;"/><polygon fill="none" points="233.75,513.32,221.1095,527.4698,232.1275,532.2242,233.75,513.32" style="stroke:#FFAF37;stroke-width:2.0;"/></g><!--reverse link resource to digitalocean_app--><g id="link_resource_digitalocean_app"><path codeLine="45" d="M116.7279,335.8794 C116.2479,396.6794 117.01,449.09 120.5,512.85 C122.67,552.51 127.13,596.21 131.55,633.4 " fill="none" id="resource-backto-digitalocean_app" style="stroke:#FFAF37;stroke-width:2.0;"/><polygon fill="none" points="116.87,317.88,110.7281,335.8321,122.7277,335.9268,116.87,317.88" style="stroke:#FFAF37;stroke-width:2.0;"/></g><!--reverse link resource to digitalocean_resource--><g id="link_resource_digitalocean_resource"><path codeLine="46" d="M191.5108,334.8088 C210.1708,379.8388 221.97,408.35 234.47,438.52 " fill="none" id="resource-backto-digitalocean_resource" style="stroke:#FFAF37;stroke-width:2.0;"/><polygon fill="none" points="184.62,318.18,185.9679,337.1057,197.0537,332.5119,184.62,318.18" style="stroke:#FFAF37;stroke-width:2.0;"/></g><!--SRC=[fP9BRzim48Jl_XK4SZDgm4xGEYvoIGm4wIKecjwAGbYJAvam7y9ocS1v_FTIbbDGZoI7tAoPppkpAssrGe6svhsmQ3T8OH9ssjL0OCKbaNzOU-D9d9Gbb6VBlddj7Ny8t895SOFc7bbBw1E_jrhk78OWJZFh2kIk8X-TQiSpWGl9GiSPjJOGmYKpwKrapCgerUQyBFjaV-Z9cLeil-40ywIGZiXyFbUBLH_vCEhTlVyJT_eHnI8_sgrd7DGSH1oeTrisH5PoiEYh_sR7dw2KTfNuccc_saxaa3hwtHQKVsZe4ap8Om8ZeUTzZUl1LhWwL-Lo5Fxn5YoRomcbAyrWl4Hm1TIrU9fCfmfBY8QBL8FIrpITVay3AJqbp-XxB9IteDrGZsH6nM830JiEQwGYc5XbwijOfrJ0Hv9uA1R9ZV0T1Af3a8e4hBrh5DQsrO2n-PqqEQ9frMcORjaLKXON8ENn8bd2mObrCwlds94S1xPt2wZQYLesVmFQ_sczBqVcRrfr_2WNpxFPRF0I9v_nNxr_]--></g></svg>

<svg xmlns="http://www.w3.org/2000/svg" width="368" height="820" viewBox="0 0 368 820"><rect width="191" height="179.273" x="48" y="633.85" fill="#3D176E" rx="2.5" ry="2.5" style="stroke:#000d19;stroke-width:.5"/><circle cx="67.05" cy="653.745" r="11" fill="#ADD1B2" style="stroke:#181818;stroke-width:1"/><path d="M70.019 659.385q-.578.297-1.219.438-.64.156-1.344.156-2.5 0-3.828-1.64-1.312-1.657-1.312-4.782t1.312-4.781q1.328-1.656 3.828-1.656.703 0 1.344.156.656.156 1.219.453v2.719q-.625-.578-1.219-.844-.594-.281-1.219-.281-1.344 0-2.031 1.078-.687 1.062-.687 3.156t.687 3.172q.688 1.062 2.031 1.062.625 0 1.219-.265.594-.281 1.219-.86z"/><text x="86.95" y="659.63" fill="#D9B8FF" font-family="Helvetica" font-size="17" textLength="140">digitalocean_app</text><path d="M49 673.639h189" style="stroke:#000d19;stroke-width:.5"/><text x="59" y="695.634" fill="#D9B8FF" font-family="sans-serif" font-size="14" font-weight="bold" textLength="121">default_ingress</text><text x="180" y="695.634" fill="#D9B8FF" font-family="sans-serif" font-size="14" textLength="48">: string</text><text x="59" y="721.931" fill="#D9B8FF" font-family="sans-serif" font-size="14" font-weight="bold" textLength="91">live_domain</text><text x="150" y="721.931" fill="#D9B8FF" font-family="sans-serif" font-size="14" textLength="48">: string</text><text x="59" y="748.228" fill="#D9B8FF" font-family="sans-serif" font-size="14" font-weight="bold" textLength="55">live_url</text><text x="114" y="748.228" fill="#D9B8FF" font-family="sans-serif" font-size="14" textLength="48">: string</text><text x="59" y="774.525" fill="#D9B8FF" font-family="sans-serif" font-size="14" font-weight="bold" textLength="100">live_url_base</text><text x="159" y="774.525" fill="#D9B8FF" font-family="sans-serif" font-size="14" textLength="48">: string</text><text x="59" y="800.822" fill="#D9B8FF" font-family="sans-serif" font-size="14" font-weight="bold" textLength="67">tier_slug</text><text x="126" y="800.822" fill="#D9B8FF" font-family="sans-serif" font-size="14" textLength="48">: string</text><rect width="223" height="74.086" x="138" y="438.76" fill="#3D176E" rx="2.5" ry="2.5" style="stroke:#000d19;stroke-width:.5"/><circle cx="153" cy="458.654" r="11" fill="#ADD1B2" style="stroke:#181818;stroke-width:1"/><path d="M155.969 464.295q-.578.297-1.219.438-.64.156-1.344.156-2.5 0-3.828-1.64-1.312-1.657-1.312-4.782t1.312-4.781q1.328-1.656 3.828-1.656.703 0 1.344.156.656.156 1.219.453v2.719q-.625-.579-1.219-.844-.594-.281-1.219-.281-1.344 0-2.031 1.078-.687 1.062-.687 3.156t.687 3.172q.688 1.062 2.031 1.062.625 0 1.219-.265.594-.281 1.219-.86z"/><text x="172" y="464.54" fill="#D9B8FF" font-family="Helvetica" font-size="17" textLength="181">digitalocean_resource</text><path d="M139 478.549h221" style="stroke:#000d19;stroke-width:.5"/><text x="149" y="500.544" fill="#D9B8FF" font-family="sans-serif" font-size="14" font-weight="bold" textLength="27">urn</text><text x="176" y="500.544" fill="#D9B8FF" font-family="sans-serif" font-size="14" textLength="48">: string</text><rect width="227" height="310.758" x="7" y="7" fill="#3D176E" rx="2.5" ry="2.5" style="stroke:#000d19;stroke-width:.5"/><circle cx="75.75" cy="26.895" r="11" fill="#ADD1B2" style="stroke:#181818;stroke-width:1"/><path d="M78.719 32.535q-.578.297-1.219.438-.64.156-1.344.156-2.5 0-3.828-1.64-1.312-1.657-1.312-4.782t1.312-4.781q1.328-1.656 3.828-1.656.703 0 1.344.156.656.156 1.219.453v2.719q-.625-.578-1.219-.844-.594-.281-1.219-.281-1.344 0-2.031 1.078-.687 1.062-.687 3.156t.687 3.172q.688 1.062 2.031 1.062.625 0 1.219-.265.594-.281 1.219-.86z"/><text x="101.25" y="32.78" fill="#D9B8FF" font-family="Helvetica" font-size="17" textLength="71">resource</text><path d="M8 46.789h225" style="stroke:#000d19;stroke-width:.5"/><text x="18" y="68.784" fill="#D9B8FF" font-family="sans-serif" font-size="14" font-weight="bold" textLength="29">age</text><text x="47" y="68.784" fill="#D9B8FF" font-family="sans-serif" font-size="14" textLength="66">: duration</text><text x="18" y="95.081" fill="#D9B8FF" font-family="sans-serif" font-size="14" font-weight="bold" textLength="43">atime</text><text x="61" y="95.081" fill="#D9B8FF" font-family="sans-serif" font-size="14" textLength="70">: datetime</text><text x="18" y="121.378" fill="#D9B8FF" font-family="sans-serif" font-size="14" font-weight="bold" textLength="43">ctime</text><text x="61" y="121.378" fill="#D9B8FF" font-family="sans-serif" font-size="14" textLength="70">: datetime</text><text x="18" y="147.675" fill="#D9B8FF" font-family="sans-serif" font-size="14" font-weight="bold" textLength="14">id</text><text x="32" y="147.675" fill="#D9B8FF" font-family="sans-serif" font-size="14" textLength="48">: string</text><text x="18" y="173.972" fill="#D9B8FF" font-family="sans-serif" font-size="14" font-weight="bold" textLength="33">kind</text><text x="51" y="173.972" fill="#D9B8FF" font-family="sans-serif" font-size="14" textLength="48">: string</text><text x="18" y="200.269" fill="#D9B8FF" font-family="sans-serif" font-size="14" font-weight="bold" textLength="90">last_access</text><text x="108" y="200.269" fill="#D9B8FF" font-family="sans-serif" font-size="14" textLength="66">: duration</text><text x="18" y="226.565" fill="#D9B8FF" font-family="sans-serif" font-size="14" font-weight="bold" textLength="90">last_update</text><text x="108" y="226.565" fill="#D9B8FF" font-family="sans-serif" font-size="14" textLength="66">: duration</text><text x="18" y="252.862" fill="#D9B8FF" font-family="sans-serif" font-size="14" font-weight="bold" textLength="48">mtime</text><text x="66" y="252.862" fill="#D9B8FF" font-family="sans-serif" font-size="14" textLength="70">: datetime</text><text x="18" y="279.159" fill="#D9B8FF" font-family="sans-serif" font-size="14" font-weight="bold" textLength="43">name</text><text x="61" y="279.159" fill="#D9B8FF" font-family="sans-serif" font-size="14" textLength="48">: string</text><text x="18" y="305.456" fill="#D9B8FF" font-family="sans-serif" font-size="14" font-weight="bold" textLength="34">tags</text><text x="52" y="305.456" fill="#D9B8FF" font-family="sans-serif" font-size="14" textLength="171">: dictionary[string, string]</text><g fill="none"><path d="M226.619 529.847c-13.64 31.61-26.809 62.123-44.699 103.583" style="stroke:#ffaf37;stroke-width:2"/><path d="m233.75 513.32-12.64 14.15 11.017 4.754z" style="stroke:#ffaf37;stroke-width:2"/></g><path fill="none" d="M116.728 335.88c-.48 60.8.282 113.21 3.772 176.97 2.17 39.66 6.63 83.36 11.05 120.55m-14.68-315.52-6.142 17.952 12 .095z" style="stroke:#ffaf37;stroke-width:2"/><g fill="none"><path d="M191.51 334.809c18.66 45.03 30.46 73.541 42.96 103.711" style="stroke:#ffaf37;stroke-width:2"/><path d="m184.62 318.18 1.348 18.926 11.086-4.594z" style="stroke:#ffaf37;stroke-width:2"/></g></svg>
